gama.ui.shared/icons_svg/dark/viewers/erase.contents.svg

<svg height="25" viewBox="-742.483 -2925.879 25 25" width="25" xmlns="http://www.w3.org/2000/svg"><g fill="none"><circle cx="-729.983" cy="-2913.379" fill="#666" r="12"/><circle cx="-729.983" cy="-2913.379" r="12" stroke="#fff" stroke-linecap="round" stroke-linejoin="round" stroke-width=".25"/><path d="m-731.0041-2906.2706h.2664c.3908-.0266.7638-.1954 1.0569-.4884l.6217-.6218-6.9275-6.9186-.6217.6217c-.6573.6572-.6573 1.7317 0 2.3891l4.5384 4.5384c.2931.2932.675.4619 1.0569.4885zm2.0871 0h4.6983c.2487 0 .4441.1954.4441.4441 0 .2485-.1954.4441-.4441.4441h-6.4923c-.1066 0-.2221 0-.32865 0h-4.72495c-.2487 0-.4441-.1956-.4441-.4441 0-.2487.1954-.4441.4441-.4441h2.9309l-4.3963-4.3964c-1.0036-1.0035-1.0036-2.6377 0-3.6413l6.3147-6.3147c1.0036-1.0036 2.6378-1.0036 3.6414 0l4.5384 4.5384c1.0036 1.0036 1.0036 2.6378 0 3.6414l-6.1726 6.1726zm-6.43905-8.6594 6.91865 6.9187 5.06245-5.0625c.65725-.6572.65725-1.7319 0-2.3892l-4.52955-4.5294c-.6572-.6573-1.7319-.6573-2.3891 0z" fill="#fc6d7d"/></g></svg>

<?xml version="1.0" encoding="UTF-8" standalone="no"?>
<!DOCTYPE svg PUBLIC "-//W3C//DTD SVG 1.1//EN" "http://www.w3.org/Graphics/SVG/1.1/DTD/svg11.dtd">
<svg xmlns:dc="http://purl.org/dc/elements/1.1/" version="1.1" xmlns="http://www.w3.org/2000/svg" xmlns:xl="http://www.w3.org/1999/xlink" viewBox="-742.4828 -2925.879 24.999996 25" width="24.999996" height="25">
  <defs/>
  <g id="SOURCES" stroke="none" stroke-dasharray="none" fill-opacity="1" stroke-opacity="1" fill="none">
    <title>SOURCES</title>
    <g id="SOURCES_Dark">
      <title>Dark</title>
      <g id="Graphic_11015">
        <circle cx="-729.9828" cy="-2913.379" r="12.0000182688381" fill="#666"/>
        <circle cx="-729.9828" cy="-2913.379" r="12.0000182688381" stroke="white" stroke-linecap="round" stroke-linejoin="round" stroke-width=".25"/>
      </g>
      <g id="Graphic_11014">
        <path d="M -731.0041 -2906.2706 L -730.7377 -2906.2706 C -730.3469 -2906.2972 -729.9739 -2906.466 -729.6808 -2906.759 L -729.0591 -2907.3808 L -735.9866 -2914.2994 L -736.6083 -2913.6777 C -737.2656 -2913.0205 -737.2656 -2911.946 -736.6083 -2911.2886 L -732.0699 -2906.7502 C -731.7768 -2906.457 -731.3949 -2906.2883 -731.013 -2906.2617 Z M -728.917 -2906.2706 L -724.2187 -2906.2706 C -723.97 -2906.2706 -723.7746 -2906.0752 -723.7746 -2905.8265 C -723.7746 -2905.578 -723.97 -2905.3824 -724.2187 -2905.3824 L -730.711 -2905.3824 C -730.8176 -2905.3824 -730.9331 -2905.3824 -731.03965 -2905.3824 L -735.7646 -2905.3824 C -736.0133 -2905.3824 -736.2087 -2905.578 -736.2087 -2905.8265 C -736.2087 -2906.0752 -736.0133 -2906.2706 -735.7646 -2906.2706 L -732.8337 -2906.2706 L -737.23 -2910.667 C -738.2336 -2911.6705 -738.2336 -2913.3047 -737.23 -2914.3083 L -730.9153 -2920.623 C -729.9117 -2921.6266 -728.2775 -2921.6266 -727.2739 -2920.623 L -722.7355 -2916.0846 C -721.7319 -2915.081 -721.7319 -2913.4468 -722.7355 -2912.4432 L -728.9081 -2906.2706 Z M -735.35605 -2914.93 L -728.4374 -2908.0113 L -723.37495 -2913.0738 C -722.7177 -2913.731 -722.7177 -2914.8057 -723.37495 -2915.463 L -727.9045 -2919.9924 C -728.5617 -2920.6497 -729.6364 -2920.6497 -730.2936 -2919.9924 Z" fill="#fc6d7d"/>
      </g>
    </g>
  </g>
</svg>
